X: 1
T: Fiddlehead Reel
C: Bill Spence
R: reel
Z: 1997 by John Chambers <jc:trillian.mit.edu>
M: C|
L: 1/8
K: A
|: E2 \
| "A"A3A A2A2 | cAce a2e2 | a2e2 aecA | "D"dcBA "E7"G2E2 \
| "A"A3A A2A2 | cAce a2e2 | "E7"EFGA Bcde | "A"c2A2 A2 :|
|: e2 \
| "A"a3a a2(3efg | a2e2 c2A2 | "A"c3c c2c2 | "E7"cBB2 B2e2 \
| "A"a3a a2(3efg | a2e2 c2A2 | "E7"EFGA Bcde | "A"c2A2 A2 :|
